svg/camera.svg

<svg xmlns="http://www.w3.org/2000/svg" viewBox="0 0 64 50" enable-background="new 0 0 64 50"><style type="text/css">.st0{fill:#343434;} .st1{fill:#333333;}</style><title>camera</title><desc>Created with Sketch.</desc><g id="camera" transform="translate(-64 -1614) translate(64 1614)"><path id="Combined-Shape" class="st0" d="M47.8 10.7v-2.5c0-2.3-2-4.2-4.4-4.2h-22.7c-2.4 0-4.4 1.9-4.4 4.2v2.5h-7c-2.9 0-5.2 2.3-5.2 5v25.3c0 2.8 2.3 5 5.2 5h45.5c2.9 0 5.2-2.3 5.2-5v-25.2c0-2.8-2.3-5-5.2-5h-7m7.3-3.9c4.9 0 8.9 3.9 8.9 8.6v25.9c0 4.8-4 8.6-8.9 8.6h-46.2c-4.9 0-8.9-3.9-8.9-8.6v-25.9c0-4.8 4-8.6 8.9-8.6h3.6c.4-3.9 3.8-6.9 7.9-6.9h23.1c4.1 0 7.5 3 8 6.9h3.6z"/><path id="Oval-40" class="st0" d="M32 39c6.6 0 12-5.4 12-12s-5.4-12-12-12-12 5.4-12 12 5.4 12 12 12zm0 4c-8.8 0-16-7.2-16-16s7.2-16 16-16 16 7.2 16 16-7.2 16-16 16z"/><circle id="Oval-41" class="st1" cx="53" cy="18" r="3"/></g></svg>

<?xml version="1.0" encoding="utf-8"?>
<!-- Generator: Adobe Illustrator 21.0.0, SVG Export Plug-In . SVG Version: 6.00 Build 0)  -->
<svg version="1.1" id="Layer_1" xmlns="http://www.w3.org/2000/svg" xmlns:xlink="http://www.w3.org/1999/xlink" x="0px" y="0px"
	 viewBox="0 0 64 50" style="enable-background:new 0 0 64 50;" xml:space="preserve">
<style type="text/css">
	.st0{fill:#343434;}
	.st1{fill:#333333;}
</style>
<title>camera</title>
<desc>Created with Sketch.</desc>
<g id="Page-1">
	<g id="Web-Icons-_x28_272_x29_" transform="translate(-64.000000, -1614.000000)">
		<g id="camera" transform="translate(64.000000, 1614.000000)">
			<path id="Combined-Shape" class="st0" d="M47.8,10.7V8.2c0-2.3-2-4.2-4.4-4.2H20.7c-2.4,0-4.4,1.9-4.4,4.2v2.5h-7
				c-2.9,0-5.2,2.3-5.2,5V41c0,2.8,2.3,5,5.2,5h45.5c2.9,0,5.2-2.3,5.2-5V15.8c0-2.8-2.3-5-5.2-5H47.8 M55.1,6.9
				c4.9,0,8.9,3.9,8.9,8.6v25.9c0,4.8-4,8.6-8.9,8.6H8.9C4,50,0,46.1,0,41.4V15.5c0-4.8,4-8.6,8.9-8.6h3.6C12.9,3,16.3,0,20.4,0
				h23.1c4.1,0,7.5,3,8,6.9H55.1z"/>
			<path id="Oval-40" class="st0" d="M32,39c6.6,0,12-5.4,12-12s-5.4-12-12-12s-12,5.4-12,12S25.4,39,32,39z M32,43
				c-8.8,0-16-7.2-16-16s7.2-16,16-16s16,7.2,16,16S40.8,43,32,43z"/>
			<circle id="Oval-41" class="st1" cx="53" cy="18" r="3"/>
		</g>
	</g>
</g>
</svg>
